src/assets/img/g0v-summit-logo.svg

<svg clip-rule="evenodd" fill-rule="evenodd" stroke-linejoin="round" stroke-miterlimit="2" viewBox="0 0 1748 400" xmlns="http://www.w3.org/2000/svg"><g transform="matrix(.902778 0 0 .195312 -9722.92 0)"><path d="m10770 0h2880v2048h-2880z" fill="none"/><g fill-rule="nonzero"><path d="m-902.3 284.5c32 0 54.7 2.3 71 5.5v-13.2c-13.8-2.2-35.6-4.5-70.3-4.5-44.3 0-65.5 4.5-76 9.7-9.7 4.9-14.7 11.4-14.7 19.7s5 14.9 14.7 19.7c10.7 5.4 31.3 9.7 74.6 9.7 34.6 0 55.9-2.4 69.1-9 7.2-3.6 11-8.7 11-17.5v-7.3h-96.5v11h67.7c.2 1.3.2 4.2-3.8 6.1-7 3.5-24.4 4.7-47.5 4.7-28.2 0-42.9-2.6-49.8-6-5-2.6-7.7-6.3-7.7-11.4 0-5 2.8-8.9 8.3-11.7 6-3 20.9-5.5 49.9-5.5z" transform="matrix(1.33747 0 0 12.3641 12176.9 -2703.18)"/><path d="m-363.5 274.4h-35.9l-57.5 43-57.4-43h-37.5l75.1 54.7h38.1z" transform="matrix(1.33747 0 0 12.3641 12176.9 -2703.18)"/><path d="m-561.2 236.5h-31.2l-203.4 129.9h31.6z" fill="#c60000" transform="matrix(1.33747 0 0 12.3641 12176.9 -2703.18)"/><path d="m-607.3 282.2c-10.2-5.2-29.9-9.9-73.2-9.9-41.7 0-62.9 4.6-73.3 9.9-9.5 4.8-14.6 10.7-14.6 19.6s5.1 14.7 14.6 19.5c10.2 5.2 30.8 9.9 73.3 9.9s62.9-4.7 73.2-9.9c9.5-4.8 14.6-10.7 14.6-19.6s-5.1-14.8-14.6-19.5zm-73.2 36.4c-27.7 0-42-2.9-48.2-6-4.8-2.4-8.2-5.5-8.2-11.4s2.9-9.1 8-11.6c6.3-3.2 20.6-5.7 48.3-5.7s41.6 2.6 48 5.9c5.1 2.6 8.2 5.6 8.2 11.5s-2.9 9.1-8 11.6c-6.4 3.2-20.4 5.7-48.1 5.7z" transform="matrix(1.33747 0 0 12.3641 12176.9 -2703.18)"/><path d="m.349.012c.18 0 .287-.059.287-.16v-.01c0-.088-.068-.132-.225-.148l-.131-.013c-.051-.005-.071-.015-.071-.035v-.006c0-.022.047-.035.135-.035.107 0 .151.016.151.053v.006h.139v-.006c0-.11-.102-.171-.286-.171-.178 0-.282.059-.282.159v.01c0 .086.066.13.213.145l.129.013c.063.006.083.015.083.035v.005c0 .027-.047.04-.14.04-.113 0-.161-.016-.161-.053v-.005h-.139v.005c0 .109.11.171.298.171z" transform="matrix(203.815 0 0 942.079 11727.7 1292.07)"/><path d="m.493-.501v.301c-.026.049-.08.08-.143.08-.091 0-.139-.047-.139-.134v-.247h-.145v.247c0 .177.092.267.264.266.067-.001.125-.021.169-.06l.004.048h.135v-.501z" transform="matrix(203.815 0 0 942.079 11867.9 1292.07)"/><path d="m.787-.513c-.085 0-.154.031-.204.088-.041-.058-.11-.088-.204-.088-.067 0-.125.021-.17.06l-.004-.048h-.135v.501h.145v-.299c.027-.05.08-.082.144-.082.081 0 .126.048.126.133v.248h.145v-.248c0-.017-.001-.033-.002-.048.026-.052.081-.085.146-.085.081 0 .127.048.127.133v.248h.145v-.248c0-.173-.09-.265-.259-.265z" transform="matrix(203.815 0 0 942.079 12012.8 1292.07)"/><path d="m.787-.513c-.085 0-.154.031-.204.088-.041-.058-.11-.088-.204-.088-.067 0-.125.021-.17.06l-.004-.048h-.135v.501h.145v-.299c.027-.05.08-.082.144-.082.081 0 .126.048.126.133v.248h.145v-.248c0-.017-.001-.033-.002-.048.026-.052.081-.085.146-.085.081 0 .127.048.127.133v.248h.145v-.248c0-.173-.09-.265-.259-.265z" transform="matrix(203.815 0 0 942.079 12238.7 1292.07)"/><path d="m.143-.559c.053 0 .09-.035.09-.085 0-.051-.036-.085-.09-.085s-.09.035-.09.085.037.085.09.085zm-.072.559h.144v-.501h-.144z" transform="matrix(203.815 0 0 942.079 12464.5 1292.07)"/><path d="m.512-.373v-.128h-.208v-.133h-.141v.096c0 .028-.009.037-.037.037h-.134v.128h.167v.2c0 .107.071.173.186.173h.137v-.127h-.118c-.039 0-.06-.02-.06-.056v-.19z" transform="matrix(203.815 0 0 942.079 12522.8 1292.07)"/></g></g></svg>

<?xml version="1.0" encoding="UTF-8" standalone="no"?>
<!DOCTYPE svg PUBLIC "-//W3C//DTD SVG 1.1//EN" "http://www.w3.org/Graphics/SVG/1.1/DTD/svg11.dtd">
<svg width="100%" height="100%" viewBox="0 0 1748 400" version="1.1" xmlns="http://www.w3.org/2000/svg" xmlns:xlink="http://www.w3.org/1999/xlink" xml:space="preserve" xmlns:serif="http://www.serif.com/" style="fill-rule:evenodd;clip-rule:evenodd;stroke-linejoin:round;stroke-miterlimit:2;">
    <g transform="matrix(0.902778,0,0,0.195312,-9722.92,0)">
        <rect x="10770" y="0" width="2880" height="2048" style="fill:none;"/>
        <g>
            <g transform="matrix(1.33747,0,0,12.3641,12176.9,-2703.18)">
                <path d="M-902.3,284.5C-870.3,284.5 -847.6,286.8 -831.3,290L-831.3,276.8C-845.1,274.6 -866.9,272.3 -901.6,272.3C-945.9,272.3 -967.1,276.8 -977.6,282C-987.3,286.9 -992.3,293.4 -992.3,301.7C-992.3,310 -987.3,316.6 -977.6,321.4C-966.9,326.8 -946.3,331.1 -903,331.1C-868.4,331.1 -847.1,328.7 -833.9,322.1C-826.7,318.5 -822.9,313.4 -822.9,304.6L-822.9,297.3L-919.4,297.3L-919.4,308.3L-851.7,308.3C-851.5,309.6 -851.5,312.5 -855.5,314.4C-862.5,317.9 -879.9,319.1 -903,319.1C-931.2,319.1 -945.9,316.5 -952.8,313.1C-957.8,310.5 -960.5,306.8 -960.5,301.7C-960.5,296.7 -957.7,292.8 -952.2,290C-946.2,287 -931.3,284.5 -902.3,284.5Z" style="fill-rule:nonzero;"/>
            </g>
            <g transform="matrix(1.33747,0,0,12.3641,12176.9,-2703.18)">
                <path d="M-363.5,274.4L-399.4,274.4L-456.9,317.4L-514.3,274.4L-551.8,274.4L-476.7,329.1L-438.6,329.1L-363.5,274.4Z" style="fill-rule:nonzero;"/>
            </g>
            <g transform="matrix(1.33747,0,0,12.3641,12176.9,-2703.18)">
                <path d="M-561.2,236.5L-592.4,236.5L-795.8,366.4L-764.2,366.4L-561.2,236.5Z" style="fill:rgb(198,0,0);fill-rule:nonzero;"/>
            </g>
            <g transform="matrix(1.33747,0,0,12.3641,12176.9,-2703.18)">
                <path d="M-607.3,282.2C-617.5,277 -637.2,272.3 -680.5,272.3C-722.2,272.3 -743.4,276.9 -753.8,282.2C-763.3,287 -768.4,292.9 -768.4,301.8C-768.4,310.7 -763.3,316.5 -753.8,321.3C-743.6,326.5 -723,331.2 -680.5,331.2C-638,331.2 -617.6,326.5 -607.3,321.3C-597.8,316.5 -592.7,310.6 -592.7,301.7C-592.7,292.8 -597.8,286.9 -607.3,282.2ZM-680.5,318.6C-708.2,318.6 -722.5,315.7 -728.7,312.6C-733.5,310.2 -736.9,307.1 -736.9,301.2C-736.9,295.3 -734,292.1 -728.9,289.6C-722.6,286.4 -708.3,283.9 -680.6,283.9C-652.9,283.9 -639,286.5 -632.6,289.8C-627.5,292.4 -624.4,295.4 -624.4,301.3C-624.4,307.2 -627.3,310.4 -632.4,312.9C-638.8,316.1 -652.8,318.6 -680.5,318.6Z" style="fill-rule:nonzero;"/>
            </g>
            <g transform="matrix(203.815,0,0,942.079,11727.7,1292.07)">
                <path d="M0.349,0.012C0.529,0.012 0.636,-0.047 0.636,-0.148L0.636,-0.158C0.636,-0.246 0.568,-0.29 0.411,-0.306L0.28,-0.319C0.229,-0.324 0.209,-0.334 0.209,-0.354L0.209,-0.36C0.209,-0.382 0.256,-0.395 0.344,-0.395C0.451,-0.395 0.495,-0.379 0.495,-0.342L0.495,-0.336L0.634,-0.336L0.634,-0.342C0.634,-0.452 0.532,-0.513 0.348,-0.513C0.17,-0.513 0.066,-0.454 0.066,-0.354L0.066,-0.344C0.066,-0.258 0.132,-0.214 0.279,-0.199L0.408,-0.186C0.471,-0.18 0.491,-0.171 0.491,-0.151L0.491,-0.146C0.491,-0.119 0.444,-0.106 0.351,-0.106C0.238,-0.106 0.19,-0.122 0.19,-0.159L0.19,-0.164L0.051,-0.164L0.051,-0.159C0.051,-0.05 0.161,0.012 0.349,0.012Z" style="fill-rule:nonzero;"/>
            </g>
            <g transform="matrix(203.815,0,0,942.079,11867.9,1292.07)">
                <path d="M0.493,-0.501L0.493,-0.2C0.467,-0.151 0.413,-0.12 0.35,-0.12C0.259,-0.12 0.211,-0.167 0.211,-0.254L0.211,-0.501L0.066,-0.501L0.066,-0.254C0.066,-0.077 0.158,0.013 0.33,0.012C0.397,0.011 0.455,-0.009 0.499,-0.048L0.503,0L0.638,0L0.638,-0.501L0.493,-0.501Z" style="fill-rule:nonzero;"/>
            </g>
            <g transform="matrix(203.815,0,0,942.079,12012.8,1292.07)">
                <path d="M0.787,-0.513C0.702,-0.513 0.633,-0.482 0.583,-0.425C0.542,-0.483 0.473,-0.513 0.379,-0.513C0.312,-0.513 0.254,-0.492 0.209,-0.453L0.205,-0.501L0.07,-0.501L0.07,0L0.215,0L0.215,-0.299C0.242,-0.349 0.295,-0.381 0.359,-0.381C0.44,-0.381 0.485,-0.333 0.485,-0.248L0.485,0L0.63,0L0.63,-0.248C0.63,-0.265 0.629,-0.281 0.628,-0.296C0.654,-0.348 0.709,-0.381 0.774,-0.381C0.855,-0.381 0.901,-0.333 0.901,-0.248L0.901,0L1.046,0L1.046,-0.248C1.046,-0.421 0.956,-0.513 0.787,-0.513Z" style="fill-rule:nonzero;"/>
            </g>
            <g transform="matrix(203.815,0,0,942.079,12238.7,1292.07)">
                <path d="M0.787,-0.513C0.702,-0.513 0.633,-0.482 0.583,-0.425C0.542,-0.483 0.473,-0.513 0.379,-0.513C0.312,-0.513 0.254,-0.492 0.209,-0.453L0.205,-0.501L0.07,-0.501L0.07,0L0.215,0L0.215,-0.299C0.242,-0.349 0.295,-0.381 0.359,-0.381C0.44,-0.381 0.485,-0.333 0.485,-0.248L0.485,0L0.63,0L0.63,-0.248C0.63,-0.265 0.629,-0.281 0.628,-0.296C0.654,-0.348 0.709,-0.381 0.774,-0.381C0.855,-0.381 0.901,-0.333 0.901,-0.248L0.901,0L1.046,0L1.046,-0.248C1.046,-0.421 0.956,-0.513 0.787,-0.513Z" style="fill-rule:nonzero;"/>
            </g>
            <g transform="matrix(203.815,0,0,942.079,12464.5,1292.07)">
                <path d="M0.143,-0.559C0.196,-0.559 0.233,-0.594 0.233,-0.644C0.233,-0.695 0.197,-0.729 0.143,-0.729C0.089,-0.729 0.053,-0.694 0.053,-0.644C0.053,-0.594 0.09,-0.559 0.143,-0.559ZM0.071,0L0.215,0L0.215,-0.501L0.071,-0.501L0.071,0Z" style="fill-rule:nonzero;"/>
            </g>
            <g transform="matrix(203.815,0,0,942.079,12522.8,1292.07)">
                <path d="M0.512,-0.373L0.512,-0.501L0.304,-0.501L0.304,-0.634L0.163,-0.634L0.163,-0.538C0.163,-0.51 0.154,-0.501 0.126,-0.501L-0.008,-0.501L-0.008,-0.373L0.159,-0.373L0.159,-0.173C0.159,-0.066 0.23,0 0.345,0L0.482,0L0.482,-0.127L0.364,-0.127C0.325,-0.127 0.304,-0.147 0.304,-0.183L0.304,-0.373L0.512,-0.373Z" style="fill-rule:nonzero;"/>
            </g>
        </g>
    </g>
</svg>
